packages/bezier-icons/icons/comment-out.svg

<svg width="24" height="24" viewBox="0 0 24 24" fill="none" xmlns="http://www.w3.org/2000/svg">
<path fill-rule="evenodd" clip-rule="evenodd" d="M7 3C4.79086 3 3 4.79086 3 7V20.9597C3 22.2174 4.4549 22.9167 5.43704 22.131L8.80295 19.4383C9.15758 19.1546 9.5982 19 10.0523 19H17C19.2091 19 21 17.2091 21 15V7C21 4.79086 19.2091 3 17 3H7ZM5 7C5 5.89543 5.89543 5 7 5H17C18.1046 5 19 5.89543 19 7V15C19 16.1046 18.1046 17 17 17H10.0523C9.14406 17 8.26282 17.3091 7.55356 17.8765L5 19.9194V7ZM15.5355 13.1213C15.9261 13.5118 15.9261 14.145 15.5355 14.5355C15.145 14.9261 14.5118 14.9261 14.1213 14.5355L12 12.4142L9.87868 14.5355C9.48816 14.9261 8.85499 14.9261 8.46447 14.5355C8.07394 14.145 8.07394 13.5118 8.46447 13.1213L10.5858 11L8.46447 8.87868C8.07394 8.48816 8.07394 7.85499 8.46447 7.46447C8.85499 7.07394 9.48816 7.07394 9.87868 7.46447L12 9.58579L14.1213 7.46447C14.5118 7.07394 15.145 7.07394 15.5355 7.46447C15.9261 7.85499 15.9261 8.48816 15.5355 8.87868L13.4142 11L15.5355 13.1213Z" fill="#313234"/>
</svg>

<svg xmlns="http://www.w3.org/2000/svg" width="24" height="24" fill="none" viewBox="0 0 24 24"><path fill="#313234" fill-rule="evenodd" d="M7 3a4 4 0 0 0-4 4v13.96c0 1.257 1.455 1.957 2.437 1.171l3.366-2.693a2 2 0 0 1 1.25-.438H17a4 4 0 0 0 4-4V7a4 4 0 0 0-4-4zM5 7a2 2 0 0 1 2-2h10a2 2 0 0 1 2 2v8a2 2 0 0 1-2 2h-6.948a4 4 0 0 0-2.498.877L5 19.919zm10.536 6.121a1 1 0 1 1-1.415 1.415L12 12.414l-2.121 2.122a1 1 0 1 1-1.415-1.415L10.586 11 8.464 8.879A1 1 0 1 1 9.88 7.464L12 9.586l2.121-2.122a1 1 0 1 1 1.415 1.415L13.414 11z" clip-rule="evenodd"/></svg>
